Papirus/24x24/apps/google-agenda.svg

<svg xmlns="http://www.w3.org/2000/svg" width="24" height="24" version="1">
 <path style="fill:#4384f1" d="M 3,2 C 2.446,2 2,2.446 2,3 l 0,18 c 0,0.554 0.446,1 1,1 l 11,0 8,-8 0,-11 C 22,2.446 21.554,2 21,2 Z"/>
 <path d="m 14.980469,8.499583 -1.980469,0.5 0,0.9999997 1.992188,-0.4999997 0,7.000001 -1.992188,0 0,1 5,0 0,-1 -2,0 0,-8.000001 z m -7.4570313,0.002 C 7.0803527,8.509823 6.7088201,8.544505 6.5000002,8.544505 l 0,1 c 0.5824601,0 1.5161208,-0.109293 2.2714844,0.05078 0.3776818,0.08004 0.6858581,0.219927 0.8886718,0.425781 C 9.8629704,10.22692 10,10.504055 10,11.021067 c 0,0.550717 -0.1099105,0.877997 -0.2421873,1.074219 -0.1322768,0.196222 -0.2942027,0.294693 -0.5253906,0.363281 -0.3695905,0.109651 -0.8959674,0.05341 -1.3847657,0.0332 -0.093116,-0.0023 -0.2436314,-0.0317 -0.3164062,-0.0293 -0.068836,0.0023 -0.1272475,0.0055 -0.1816406,0.01172 -0.027197,0.0031 -0.052918,0.0069 -0.085937,0.01367 -0.033021,0.0067 -0.04854,-0.01538 -0.1894531,0.07422 -0.017614,0.0112 -0.062192,0.04465 -0.0625,0.04492 -3.086e-4,2.69e-4 -0.07989,0.08958 -0.080078,0.08984 -1.885e-4,2.67e-4 -0.076104,0.165751 -0.076172,0.166015 -6.77e-5,2.64e-4 -0.00591,0.226302 -0.00586,0.226563 5.44e-5,2.61e-4 0.077947,0.181383 0.078125,0.18164 1.775e-4,2.57e-4 0.091495,0.09936 0.091797,0.09961 3.018e-4,2.53e-4 0.050236,0.0391 0.070313,0.05078 0.020077,0.01168 0.038091,0.01895 0.052734,0.02539 0.1171446,0.05152 0.1352352,0.04107 0.1679688,0.04492 0.065467,0.0077 0.1166456,0.0078 0.1894529,0.0078 0.069136,0 0.2451338,-0.01953 0.3339844,-0.01367 0.2033636,0.0065 0.4099531,0.0056 0.6875,0.06445 0.387144,0.08204 0.7825183,0.2357 1.0488281,0.458985 C 9.8366225,14.232605 10,14.494771 10,14.97807 c 0,0.500154 -0.1481518,0.762308 -0.3925779,0.976562 -0.2444261,0.214255 -0.6268202,0.364306 -1.0742188,0.447266 -0.8947971,0.165918 -1.9507447,0.05469 -2.5332031,0.05469 l 0,1 c 0.4176416,0 1.611469,0.134642 2.7167969,-0.07031 C 9.269461,17.2838 9.8244639,17.095008 10.267578,16.70659 10.710693,16.318169 11,15.714169 11,14.978073 c 0,-0.752952 -0.334616,-1.356941 -0.787109,-1.736328 -0.08403,-0.07046 -0.186056,-0.0671 -0.2753908,-0.125 C 10.167391,12.982844 10.419711,12.900437 10.585938,12.653854 10.859932,12.247403 11,11.70658 11,11.021041 11,10.301798 10.762052,9.714734 10.371094,9.317915 9.9801357,8.921124 9.4758715,8.722168 8.9785158,8.616771 8.4811601,8.511372 7.9665227,8.4932529 7.5234377,8.501536 Z" style="opacity:0.2"/>
 <path style="fill:#ffffff" d="m 14.980469,7.9995836 -1.980469,0.5 0,1 1.992188,-0.5 0,7.0000004 -1.992188,0 0,1 5,0 0,-1 -2,0 0,-8.0000004 z m -7.4570313,0.002 c -0.443085,0.00824 -0.8146176,0.042922 -1.0234375,0.042922 l 0,1 c 0.5824601,0 1.5161208,-0.109293 2.2714844,0.05078 0.3776818,0.08004 0.6858581,0.219927 0.8886718,0.425781 C 9.8629704,9.7269206 10,10.004055 10,10.521067 c 0,0.550717 -0.1099105,0.877997 -0.2421873,1.074219 -0.1322768,0.196222 -0.2942027,0.294693 -0.5253906,0.363281 -0.3695905,0.109651 -0.8959674,0.05341 -1.3847657,0.0332 -0.093116,-0.0023 -0.2436314,-0.0317 -0.3164062,-0.0293 -0.068836,0.0023 -0.1272475,0.0055 -0.1816406,0.01172 -0.027197,0.0031 -0.052918,0.0069 -0.085937,0.01367 -0.033021,0.0067 -0.04854,-0.01538 -0.1894531,0.07422 -0.017614,0.0112 -0.062192,0.04465 -0.0625,0.04492 -3.086e-4,2.69e-4 -0.07989,0.08958 -0.080078,0.08984 -1.885e-4,2.67e-4 -0.076104,0.165751 -0.076172,0.166015 -6.77e-5,2.64e-4 -0.00591,0.226302 -0.00586,0.226563 5.44e-5,2.61e-4 0.077947,0.181383 0.078125,0.18164 1.775e-4,2.57e-4 0.091495,0.09936 0.091797,0.09961 3.018e-4,2.53e-4 0.050236,0.0391 0.070313,0.05078 0.020077,0.01168 0.038091,0.01895 0.052734,0.02539 0.1171446,0.05152 0.1352352,0.04107 0.1679688,0.04492 0.065467,0.0077 0.1166456,0.0078 0.1894529,0.0078 0.069136,0 0.2451338,-0.01953 0.3339844,-0.01367 0.2033636,0.0065 0.4099531,0.0056 0.6875,0.06445 0.387144,0.08204 0.7825183,0.2357 1.0488281,0.458985 C 9.8366225,13.732605 10,13.994771 10,14.47807 c 0,0.500154 -0.1481518,0.762308 -0.3925779,0.976562 -0.2444261,0.214255 -0.6268202,0.364306 -1.0742188,0.447266 -0.8947971,0.165918 -1.9507447,0.05469 -2.5332031,0.05469 l 0,1 c 0.4176416,0 1.611469,0.134642 2.7167969,-0.07031 C 9.269461,16.7838 9.8244639,16.595008 10.267578,16.20659 10.710693,15.818169 11,15.214169 11,14.478073 c 0,-0.752952 -0.334616,-1.356941 -0.787109,-1.736328 -0.08403,-0.07046 -0.186056,-0.0671 -0.2753908,-0.125 C 10.167391,12.482844 10.419711,12.400437 10.585938,12.153854 10.859932,11.747403 11,11.20658 11,10.521041 11,9.8017986 10.762052,9.2147346 10.371094,8.8179156 9.9801357,8.4211246 9.4758715,8.2221686 8.9785158,8.1167716 8.4811601,8.0113726 7.9665227,7.9932535 7.5234377,8.0015366 Z"/>
 <path style="fill:#9bcdff" d="m 22,14 -7,0 c -0.5523,0 -1,0.44772 -1,1 l 0,7 z"/>
 <path style="opacity:0.2;fill:#ffffff" d="M 3,2 C 2.446,2 2,2.446 2,3 l 0,0.5 c 0,-0.554 0.446,-1 1,-1 l 18,0 c 0.554,0 1,0.446 1,1 L 22,3 C 22,2.446 21.554,2 21,2 Z"/>
 <path style="opacity:0.2;fill:#ffffff" d="m 15,14 c -0.5523,0 -1,0.44772 -1,1 l 0,0.5 c 0,-0.5523 0.44772,-1 1,-1 l 6.5,0 0.5,-0.5 -7,0 z"/>
 <path style="opacity:0.2" d="M 21.002,14.998 14,22 3,22 C 2.446,22 2,21.554 2,21 l 0,0.5 c 0,0.554 0.446,1 1,1 l 11,0 7.486,-7.486 z"/>
 <circle style="opacity:0.4;fill-rule:evenodd" cx="6" cy="5" r="1"/>
 <circle cx="18" cy="5" r="1" style="opacity:0.4;fill-rule:evenodd"/>
</svg>

<svg xmlns="http://www.w3.org/2000/svg" width="24" height="24" version="1">
 <path style="opacity:0.2" d="M 3,2.5 C 2.446,2.5 2,2.946 2,3.5 V 21.5 C 2,22.054 2.446,22.5 3,22.5 H 14 L 22,14.5 V 3.5 C 22,2.946 21.554,2.5 21,2.5 Z"/>
 <path style="fill:#4384f1" d="M 3,2 C 2.446,2 2,2.446 2,3 V 21 C 2,21.554 2.446,22 3,22 H 14 L 22,14 V 3 C 22,2.446 21.554,2 21,2 Z"/>
 <path style="opacity:0.2" d="M 14.98,8.4996 13,8.9996 V 9.9996 L 14.992,9.4996 V 16.5 H 13 V 17.5 H 18 V 16.5 H 16 V 8.4996 Z M 7.5234,8.5016 C 7.0804,8.5098 6.7088,8.5445 6.5,8.5445 V 9.5445 C 7.0825,9.5445 8.0161,9.4352 8.7715,9.5953 9.1492,9.6753 9.4573,9.8152 9.6602,10.021 9.863,10.227 10,10.504 10,11.021 10,11.572 9.8901,11.899 9.7578,12.095 9.6255,12.292 9.4636,12.39 9.2324,12.459 8.8628,12.568 8.3365,12.512 7.8477,12.492 7.7545,12.489 7.604,12.46 7.5313,12.462 7.4624,12.465 7.404,12.468 7.3496,12.474 7.3224,12.477 7.2967,12.481 7.2637,12.488 7.2307,12.495 7.2151,12.472 7.0742,12.562 7.0566,12.573 7.012,12.607 7.0117,12.607 7.0114,12.607 6.9318,12.697 6.9316,12.697 6.9315,12.697 6.8555,12.863 6.8555,12.863 6.8554,12.863 6.8496,13.089 6.8496,13.089 6.8497,13.09 6.9276,13.271 6.9277,13.271 6.9279,13.271 7.0192,13.37 7.0195,13.371 7.0198,13.371 7.0698,13.41 7.0898,13.421 7.1099,13.433 7.1279,13.44 7.1426,13.447 7.2597,13.498 7.2778,13.488 7.3105,13.492 7.376,13.499 7.4272,13.5 7.5,13.5 7.5691,13.5 7.7451,13.48 7.834,13.486 8.0373,13.492 8.2439,13.491 8.5215,13.55 8.9086,13.632 9.304,13.786 9.5703,14.009 9.8366,14.233 10,14.495 10,14.978 10,15.478 9.8518,15.74 9.6074,15.955 9.363,16.169 8.9806,16.319 8.5332,16.402 7.6384,16.568 6.5825,16.457 6,16.457 V 17.457 C 6.4176,17.457 7.6115,17.591 8.7168,17.386 9.2695,17.284 9.8245,17.095 10.268,16.707 10.711,16.318 11,15.714 11,14.978 11,14.225 10.665,13.621 10.213,13.242 10.129,13.171 10.027,13.175 9.9375,13.117 10.167,12.983 10.42,12.9 10.586,12.654 10.86,12.247 11,11.707 11,11.021 11,10.302 10.762,9.7147 10.371,9.3179 9.9801,8.9211 9.4759,8.7222 8.9785,8.6168 8.4812,8.5114 7.9665,8.4933 7.5234,8.5015 Z"/>
 <path style="fill:#ffffff" d="M 14.98,7.9996 13,8.4996 V 9.4996 L 14.992,8.9996 V 16 H 13 V 17 H 18 V 16 H 16 V 7.9996 Z M 7.5234,8.0016 C 7.0804,8.0098 6.7088,8.0445 6.5,8.0445 V 9.0445 C 7.0825,9.0445 8.0161,8.9352 8.7715,9.0953 9.1492,9.1753 9.4573,9.3152 9.6602,9.5211 9.863,9.7269 10,10.004 10,10.521 10,11.072 9.8901,11.399 9.7578,11.595 9.6255,11.792 9.4636,11.89 9.2324,11.959 8.8628,12.068 8.3365,12.012 7.8477,11.992 7.7545,11.989 7.604,11.96 7.5313,11.962 7.4624,11.965 7.404,11.968 7.3496,11.974 7.3224,11.977 7.2967,11.981 7.2637,11.988 7.2307,11.995 7.2151,11.972 7.0742,12.062 7.0566,12.073 7.012,12.107 7.0117,12.107 7.0114,12.107 6.9318,12.197 6.9316,12.197 6.9315,12.197 6.8555,12.363 6.8555,12.363 6.8554,12.363 6.8496,12.589 6.8496,12.589 6.8497,12.59 6.9276,12.771 6.9277,12.771 6.9279,12.771 7.0192,12.87 7.0195,12.871 7.0198,12.871 7.0698,12.91 7.0898,12.921 7.1099,12.933 7.1279,12.94 7.1426,12.947 7.2597,12.998 7.2778,12.988 7.3105,12.992 7.376,12.999 7.4272,13 7.5,13 7.5691,13 7.7451,12.98 7.834,12.986 8.0373,12.992 8.2439,12.991 8.5215,13.05 8.9086,13.132 9.304,13.286 9.5703,13.509 9.8366,13.733 10,13.995 10,14.478 10,14.978 9.8518,15.24 9.6074,15.455 9.363,15.669 8.9806,15.819 8.5332,15.902 7.6384,16.068 6.5825,15.957 6,15.957 V 16.957 C 6.4176,16.957 7.6115,17.091 8.7168,16.886 9.2695,16.784 9.8245,16.595 10.268,16.207 10.711,15.818 11,15.214 11,14.478 11,13.725 10.665,13.121 10.213,12.742 10.129,12.671 10.027,12.675 9.9375,12.617 10.167,12.483 10.42,12.4 10.586,12.154 10.86,11.747 11,11.207 11,10.521 11,9.8018 10.762,9.2147 10.371,8.8179 9.9801,8.4211 9.4759,8.2222 8.9785,8.1168 8.4812,8.0114 7.9665,7.9933 7.5234,8.0015 Z"/>
 <path style="fill:#9bcdff" d="M 22,14 H 15 C 14.448,14 14,14.448 14,15 V 22 Z"/>
 <path style="opacity:0.2;fill:#ffffff" d="M 3,2 C 2.446,2 2,2.446 2,3 V 3.5 C 2,2.946 2.446,2.5 3,2.5 H 21 C 21.554,2.5 22,2.946 22,3.5 V 3 C 22,2.446 21.554,2 21,2 Z"/>
 <path style="opacity:0.2;fill:#ffffff" d="M 15,14 C 14.448,14 14,14.448 14,15 V 15.5 C 14,14.948 14.448,14.5 15,14.5 H 21.5 L 22,14 Z"/>
 <circle style="opacity:0.4" cx="6" cy="5" r="1"/>
 <circle style="opacity:0.4" cx="18" cy="5" r="1"/>
</svg>
